src/pages/elements/pictograms/images/10_Backgrounds-mobile_1.svg

<svg version="1.1" id="Layer_1" xmlns="http://www.w3.org/2000/svg" x="0" y="0" viewBox="0 0 289 576" xml:space="preserve"><style>.st0{fill:#054ada}.st1{fill:none}.st2{fill:#fff}</style><path id="Rectangle-3-Copy" class="st0" d="M0 0h289v288H0z"/><g id="Group-17-Copy-6" transform="translate(84 84)"><path id="Fill-1" class="st1" d="M0 121h121V0H0z"/><g id="Group-16" transform="translate(1.973 1.973)"><path id="Fill-2" class="st2" d="M13.2 3.2c-5.5 0-10 4.5-10 10s4.5 10 10 10 10-4.5 10-10-4.5-10-10-10m0 22.7C6.2 25.9.5 20.2.5 13.2S6.2.5 13.2.5s12.7 5.7 12.7 12.7-5.7 12.7-12.7 12.7"/><path id="Fill-4" class="st2" d="M103.9 93.9c-5.5 0-10 4.5-10 10s4.5 10 10 10 10-4.5 10-10-4.5-10-10-10m0 22.7c-7 0-12.7-5.7-12.7-12.7s5.7-12.7 12.7-12.7 12.7 5.7 12.7 12.7-5.7 12.7-12.7 12.7"/><path id="Fill-6" class="st2" d="M13.2 101.5c-1.3 0-2.4 1.1-2.4 2.4s1.1 2.4 2.4 2.4 2.4-1.1 2.4-2.4c0-1.3-1.1-2.4-2.4-2.4m0 7.5c-2.8 0-5.1-2.3-5.1-5.1s2.3-5.1 5.1-5.1 5.1 2.3 5.1 5.1-2.3 5.1-5.1 5.1"/><path id="Fill-8" class="st2" d="M103.9 10.7c-1.3 0-2.4 1.1-2.4 2.4s1.1 2.4 2.4 2.4 2.4-1.1 2.4-2.4-1.1-2.4-2.4-2.4m0 7.6c-2.8 0-5.1-2.3-5.1-5.1s2.3-5.1 5.1-5.1 5.1 2.3 5.1 5.1-2.3 5.1-5.1 5.1"/><path id="Fill-10" class="st2" d="M58.5 41C48.8 41 41 48.9 41 58.5 41 68.2 48.9 76 58.5 76S76 68.1 76 58.5c.1-9.6-7.8-17.5-17.5-17.5m0 37.8c-11.2 0-20.3-9.1-20.3-20.3s9.1-20.3 20.3-20.3 20.3 9.1 20.3 20.3-9.1 20.3-20.3 20.3"/><path id="Fill-12" class="st2" d="M58.5 48.5c-5.5 0-10 4.5-10 10s4.5 10 10 10 10-4.5 10-10-4.5-10-10-10m0 22.7c-7 0-12.7-5.7-12.7-12.7s5.7-12.7 12.7-12.7 12.7 5.7 12.7 12.7-5.7 12.7-12.7 12.7"/><path id="Fill-14" class="st2" d="M103.9 23.1c-2.4 0-4.6-.9-6.3-2.3l-1.3-1.3c-1.4-1.7-2.3-3.9-2.3-6.3 0-5.5 4.5-10 10-10s10 4.5 10 10-4.6 9.9-10.1 9.9m-5.3 35.4c-1.8 3.7-13.5 25.1-40.1 25.1S20.2 62.2 18.4 58.5c1.8-3.7 13.5-25.1 40.1-25.1s38.3 21.4 40.1 25.1m-85.4 55.4c-5.5 0-10-4.5-10-10s4.5-10 10-10 10 4.5 10 10c-.1 5.5-4.5 10-10 10M103.9.4c-7 0-12.7 5.7-12.7 12.7 0 3 1.1 5.7 2.9 7.9L79.5 35.6c-5.7-2.9-12.6-4.9-21-4.9-30.8 0-42.7 27-42.8 27.3-.1.3-.1.7 0 1.1.1.2 5.8 13 19.3 21l-13.9 14c-2.2-1.8-4.9-2.9-7.9-2.9-7 0-12.7 5.7-12.7 12.7s5.7 12.7 12.7 12.7 12.7-5.7 12.7-12.7c0-3-1.1-5.7-2.9-7.9l14.5-14.5c5.7 2.9 12.6 4.9 21 4.9 30.8 0 42.7-27 42.8-27.3.1-.3.1-.7 0-1.1-.1-.2-5.8-13-19.3-21.1L96 23c2.2 1.8 4.9 2.9 7.9 2.9 7 0 12.7-5.7 12.7-12.7 0-7.1-5.7-12.8-12.7-12.8"/></g></g><g id="Artboard-Copy-85"><path id="Rectangle-3-Copy_1_" fill="#edf4ff" d="M1 288h288v288H1z"/><g id="Group-17-Copy-6_1_" transform="translate(84 84)"><path id="Fill-1_1_" class="st1" d="M1 409h121V288H1z"/><g id="Group-16_1_" transform="translate(1.973 1.973)"><path id="Fill-2_1_" class="st0" d="M14.2 291.2c-5.5 0-10 4.5-10 10s4.5 10 10 10 10-4.5 10-10-4.5-10-10-10m0 22.7c-7 0-12.7-5.7-12.7-12.7s5.7-12.7 12.7-12.7 12.7 5.7 12.7 12.7c0 7-5.7 12.7-12.7 12.7"/><path id="Fill-4_1_" class="st0" d="M104.9 381.9c-5.5 0-10 4.5-10 10s4.5 10 10 10 10-4.5 10-10-4.5-10-10-10m0 22.7c-7 0-12.7-5.7-12.7-12.7s5.7-12.7 12.7-12.7 12.7 5.7 12.7 12.7-5.7 12.7-12.7 12.7"/><path id="Fill-6_1_" class="st0" d="M14.2 389.5c-1.3 0-2.4 1.1-2.4 2.4s1.1 2.4 2.4 2.4 2.4-1.1 2.4-2.4c0-1.3-1.1-2.4-2.4-2.4m0 7.5c-2.8 0-5.1-2.3-5.1-5.1s2.3-5.1 5.1-5.1 5.1 2.3 5.1 5.1-2.3 5.1-5.1 5.1"/><path id="Fill-8_1_" class="st0" d="M104.9 298.7c-1.3 0-2.4 1.1-2.4 2.4s1.1 2.4 2.4 2.4 2.4-1.1 2.4-2.4c0-1.3-1.1-2.4-2.4-2.4m0 7.6c-2.8 0-5.1-2.3-5.1-5.1s2.3-5.1 5.1-5.1 5.1 2.3 5.1 5.1-2.3 5.1-5.1 5.1"/><path id="Fill-10_1_" class="st0" d="M59.5 329c-9.7 0-17.5 7.9-17.5 17.5 0 9.7 7.9 17.5 17.5 17.5S77 356.1 77 346.5c.1-9.6-7.8-17.5-17.5-17.5m0 37.8c-11.2 0-20.3-9.1-20.3-20.3s9.1-20.3 20.3-20.3 20.3 9.1 20.3 20.3-9.1 20.3-20.3 20.3"/><path id="Fill-12_1_" class="st0" d="M59.5 336.5c-5.5 0-10 4.5-10 10s4.5 10 10 10 10-4.5 10-10-4.5-10-10-10m0 22.7c-7 0-12.7-5.7-12.7-12.7s5.7-12.7 12.7-12.7 12.7 5.7 12.7 12.7-5.7 12.7-12.7 12.7"/><path id="Fill-14_1_" class="st0" d="M104.9 311.1c-2.4 0-4.6-.9-6.3-2.3l-1.3-1.3c-1.4-1.7-2.3-3.9-2.3-6.3 0-5.5 4.5-10 10-10s10 4.5 10 10-4.6 9.9-10.1 9.9m-5.3 35.4c-1.8 3.7-13.5 25.1-40.1 25.1s-38.3-21.4-40.1-25.1c1.8-3.7 13.5-25.1 40.1-25.1s38.3 21.4 40.1 25.1m-85.4 55.4c-5.5 0-10-4.5-10-10s4.5-10 10-10 10 4.5 10 10-4.5 10-10 10m90.7-113.5c-7 0-12.7 5.7-12.7 12.7 0 3 1.1 5.7 2.9 7.9l-14.5 14.5c-5.7-2.9-12.6-4.9-21-4.9-30.8 0-42.7 27-42.8 27.3-.1.3-.1.7 0 1.1.1.2 5.8 13 19.3 21l-13.9 13.9c-2.2-1.8-4.9-2.9-7.9-2.9-7 0-12.7 5.7-12.7 12.7s5.7 12.7 12.7 12.7S27 398.7 27 391.7c0-3-1.1-5.7-2.9-7.9l14.5-14.5c5.7 2.9 12.6 4.9 21 4.9 30.8 0 42.7-27 42.8-27.3.1-.3.1-.7 0-1.1-.1-.2-5.8-13-19.3-21.1L97 311c2.2 1.8 4.9 2.9 7.9 2.9 7 0 12.7-5.7 12.7-12.7 0-7.1-5.7-12.8-12.7-12.8"/></g></g></g></svg>

<?xml version="1.0" encoding="utf-8"?>
<!-- Generator: Adobe Illustrator 22.1.0, SVG Export Plug-In . SVG Version: 6.00 Build 0)  -->
<svg version="1.1" id="Layer_1" xmlns="http://www.w3.org/2000/svg" xmlns:xlink="http://www.w3.org/1999/xlink" x="0px" y="0px"
	 viewBox="0 0 289 576" style="enable-background:new 0 0 289 576;" xml:space="preserve">
<style type="text/css">
	.st0{fill:#054ADA;}
	.st1{fill:none;}
	.st2{fill:#FFFFFF;}
	.st3{fill:#EDF4FF;}
</style>
<title>Artboard Copy 84</title>
<desc>Created with Sketch.</desc>
<rect id="Rectangle-3-Copy" class="st0" width="289" height="288"/>
<g id="Group-17-Copy-6" transform="translate(84.000000, 84.000000)">
	<polygon id="Fill-1" class="st1" points="0,121 121,121 121,0 0,0 	"/>
	<g id="Group-16" transform="translate(1.972826, 1.972826)">
		<path id="Fill-2" class="st2" d="M13.2,3.2c-5.5,0-10,4.5-10,10s4.5,10,10,10s10-4.5,10-10S18.7,3.2,13.2,3.2 M13.2,25.9
			c-7,0-12.7-5.7-12.7-12.7S6.2,0.5,13.2,0.5s12.7,5.7,12.7,12.7S20.2,25.9,13.2,25.9"/>
		<path id="Fill-4" class="st2" d="M103.9,93.9c-5.5,0-10,4.5-10,10s4.5,10,10,10s10-4.5,10-10S109.4,93.9,103.9,93.9 M103.9,116.6
			c-7,0-12.7-5.7-12.7-12.7s5.7-12.7,12.7-12.7s12.7,5.7,12.7,12.7S110.9,116.6,103.9,116.6"/>
		<path id="Fill-6" class="st2" d="M13.2,101.5c-1.3,0-2.4,1.1-2.4,2.4s1.1,2.4,2.4,2.4s2.4-1.1,2.4-2.4
			C15.6,102.6,14.5,101.5,13.2,101.5 M13.2,109c-2.8,0-5.1-2.3-5.1-5.1s2.3-5.1,5.1-5.1s5.1,2.3,5.1,5.1S16,109,13.2,109"/>
		<path id="Fill-8" class="st2" d="M103.9,10.7c-1.3,0-2.4,1.1-2.4,2.4s1.1,2.4,2.4,2.4s2.4-1.1,2.4-2.4S105.2,10.7,103.9,10.7
			 M103.9,18.3c-2.8,0-5.1-2.3-5.1-5.1s2.3-5.1,5.1-5.1s5.1,2.3,5.1,5.1S106.7,18.3,103.9,18.3"/>
		<path id="Fill-10" class="st2" d="M58.5,41C48.8,41,41,48.9,41,58.5C41,68.2,48.9,76,58.5,76S76,68.1,76,58.5
			C76.1,48.9,68.2,41,58.5,41 M58.5,78.8c-11.2,0-20.3-9.1-20.3-20.3s9.1-20.3,20.3-20.3s20.3,9.1,20.3,20.3S69.7,78.8,58.5,78.8"/>
		<path id="Fill-12" class="st2" d="M58.5,48.5c-5.5,0-10,4.5-10,10s4.5,10,10,10s10-4.5,10-10S64,48.5,58.5,48.5 M58.5,71.2
			c-7,0-12.7-5.7-12.7-12.7s5.7-12.7,12.7-12.7s12.7,5.7,12.7,12.7S65.5,71.2,58.5,71.2"/>
		<path id="Fill-14" class="st2" d="M103.9,23.1c-2.4,0-4.6-0.9-6.3-2.3l-1.3-1.3c-1.4-1.7-2.3-3.9-2.3-6.3c0-5.5,4.5-10,10-10
			s10,4.5,10,10S109.4,23.1,103.9,23.1 M98.6,58.5c-1.8,3.7-13.5,25.1-40.1,25.1S20.2,62.2,18.4,58.5c1.8-3.7,13.5-25.1,40.1-25.1
			S96.8,54.8,98.6,58.5 M13.2,113.9c-5.5,0-10-4.5-10-10s4.5-10,10-10s10,4.5,10,10C23.1,109.4,18.7,113.9,13.2,113.9 M103.9,0.4
			c-7,0-12.7,5.7-12.7,12.7c0,3,1.1,5.7,2.9,7.9L79.5,35.6c-5.7-2.9-12.6-4.9-21-4.9c-30.8,0-42.7,27-42.8,27.3
			c-0.1,0.3-0.1,0.7,0,1.1c0.1,0.2,5.8,13,19.3,21l-13.9,14c-2.2-1.8-4.9-2.9-7.9-2.9c-7,0-12.7,5.7-12.7,12.7s5.7,12.7,12.7,12.7
			s12.7-5.7,12.7-12.7c0-3-1.1-5.7-2.9-7.9l14.5-14.5c5.7,2.9,12.6,4.9,21,4.9c30.8,0,42.7-27,42.8-27.3c0.1-0.3,0.1-0.7,0-1.1
			c-0.1-0.2-5.8-13-19.3-21.1L96,23c2.2,1.8,4.9,2.9,7.9,2.9c7,0,12.7-5.7,12.7-12.7C116.6,6.1,110.9,0.4,103.9,0.4"/>
	</g>
</g>
<g id="Artboard-Copy-85">
	<rect id="Rectangle-3-Copy_1_" x="1" y="288" class="st3" width="288" height="288"/>
	<g id="Group-17-Copy-6_1_" transform="translate(84.000000, 84.000000)">
		<polygon id="Fill-1_1_" class="st1" points="1,409 122,409 122,288 1,288 		"/>
		<g id="Group-16_1_" transform="translate(1.972826, 1.972826)">
			<path id="Fill-2_1_" class="st0" d="M14.2,291.2c-5.5,0-10,4.5-10,10s4.5,10,10,10s10-4.5,10-10S19.7,291.2,14.2,291.2
				 M14.2,313.9c-7,0-12.7-5.7-12.7-12.7s5.7-12.7,12.7-12.7s12.7,5.7,12.7,12.7C26.9,308.2,21.2,313.9,14.2,313.9"/>
			<path id="Fill-4_1_" class="st0" d="M104.9,381.9c-5.5,0-10,4.5-10,10s4.5,10,10,10s10-4.5,10-10S110.4,381.9,104.9,381.9
				 M104.9,404.6c-7,0-12.7-5.7-12.7-12.7s5.7-12.7,12.7-12.7s12.7,5.7,12.7,12.7S111.9,404.6,104.9,404.6"/>
			<path id="Fill-6_1_" class="st0" d="M14.2,389.5c-1.3,0-2.4,1.1-2.4,2.4s1.1,2.4,2.4,2.4s2.4-1.1,2.4-2.4
				C16.6,390.6,15.5,389.5,14.2,389.5 M14.2,397c-2.8,0-5.1-2.3-5.1-5.1s2.3-5.1,5.1-5.1s5.1,2.3,5.1,5.1S17,397,14.2,397"/>
			<path id="Fill-8_1_" class="st0" d="M104.9,298.7c-1.3,0-2.4,1.1-2.4,2.4s1.1,2.4,2.4,2.4s2.4-1.1,2.4-2.4
				C107.3,299.8,106.2,298.7,104.9,298.7 M104.9,306.3c-2.8,0-5.1-2.3-5.1-5.1s2.3-5.1,5.1-5.1s5.1,2.3,5.1,5.1
				S107.7,306.3,104.9,306.3"/>
			<path id="Fill-10_1_" class="st0" d="M59.5,329c-9.7,0-17.5,7.9-17.5,17.5c0,9.7,7.9,17.5,17.5,17.5S77,356.1,77,346.5
				C77.1,336.9,69.2,329,59.5,329 M59.5,366.8c-11.2,0-20.3-9.1-20.3-20.3s9.1-20.3,20.3-20.3s20.3,9.1,20.3,20.3
				S70.7,366.8,59.5,366.8"/>
			<path id="Fill-12_1_" class="st0" d="M59.5,336.5c-5.5,0-10,4.5-10,10s4.5,10,10,10s10-4.5,10-10S65,336.5,59.5,336.5
				 M59.5,359.2c-7,0-12.7-5.7-12.7-12.7s5.7-12.7,12.7-12.7s12.7,5.7,12.7,12.7S66.5,359.2,59.5,359.2"/>
			<path id="Fill-14_1_" class="st0" d="M104.9,311.1c-2.4,0-4.6-0.9-6.3-2.3l-1.3-1.3c-1.4-1.7-2.3-3.9-2.3-6.3c0-5.5,4.5-10,10-10
				s10,4.5,10,10S110.4,311.1,104.9,311.1 M99.6,346.5c-1.8,3.7-13.5,25.1-40.1,25.1s-38.3-21.4-40.1-25.1
				c1.8-3.7,13.5-25.1,40.1-25.1S97.8,342.8,99.6,346.5 M14.2,401.9c-5.5,0-10-4.5-10-10s4.5-10,10-10s10,4.5,10,10
				S19.7,401.9,14.2,401.9 M104.9,288.4c-7,0-12.7,5.7-12.7,12.7c0,3,1.1,5.7,2.9,7.9l-14.5,14.5c-5.7-2.9-12.6-4.9-21-4.9
				c-30.8,0-42.7,27-42.8,27.3c-0.1,0.3-0.1,0.7,0,1.1c0.1,0.2,5.8,13,19.3,21l-13.9,13.9c-2.2-1.8-4.9-2.9-7.9-2.9
				c-7,0-12.7,5.7-12.7,12.7s5.7,12.7,12.7,12.7S27,398.7,27,391.7c0-3-1.1-5.7-2.9-7.9l14.5-14.5c5.7,2.9,12.6,4.9,21,4.9
				c30.8,0,42.7-27,42.8-27.3c0.1-0.3,0.1-0.7,0-1.1c-0.1-0.2-5.8-13-19.3-21.1L97,311c2.2,1.8,4.9,2.9,7.9,2.9
				c7,0,12.7-5.7,12.7-12.7C117.6,294.1,111.9,288.4,104.9,288.4"/>
		</g>
	</g>
</g>
</svg>
